Newaita-dark/.DP/256/weather-severe-alert.svg

<?xml version="1.0" encoding="UTF-8"?>
<svg xmlns="http://www.w3.org/2000/svg" xmlns:xlink="http://www.w3.org/1999/xlink" width="256pt" height="256pt" viewBox="0 0 256 256" version="1.1">
<defs>
<radialGradient id="radial0" gradientUnits="userSpaceOnUse" cx="450.908936" cy="189.579361" fx="450.908936" fy="189.579361" r="21.166656" gradientTransform="matrix(0.00000139336,-0.62506,-1.125108,-0.000000812309,356.185215,508.762635)">
<stop offset="0" style="stop-color:rgb(0%,0%,0%);stop-opacity:0.313725;"/>
<stop offset="0.222222" style="stop-color:rgb(0%,0%,0%);stop-opacity:0.27451;"/>
<stop offset="1" style="stop-color:rgb(0%,0%,0%);stop-opacity:0;"/>
</radialGradient>
<radialGradient id="radial1" gradientUnits="userSpaceOnUse" cx="450.908936" cy="189.579361" fx="450.908936" fy="189.579361" r="21.166656" gradientTransform="matrix(-0.00000139336,0.62506,1.125108,0.000000812309,-102.160949,-60.219856)">
<stop offset="0" style="stop-color:rgb(0%,0%,0%);stop-opacity:0.313725;"/>
<stop offset="0.222222" style="stop-color:rgb(0%,0%,0%);stop-opacity:0.27451;"/>
<stop offset="1" style="stop-color:rgb(0%,0%,0%);stop-opacity:0;"/>
</radialGradient>
<radialGradient id="radial2" gradientUnits="userSpaceOnUse" cx="450.908936" cy="189.579361" fx="450.908936" fy="189.579361" r="21.166656" gradientTransform="matrix(-0.00000139336,-0.62506,1.125108,-0.000000812309,-102.160949,508.762635)">
<stop offset="0" style="stop-color:rgb(0%,0%,0%);stop-opacity:0.313725;"/>
<stop offset="0.222222" style="stop-color:rgb(0%,0%,0%);stop-opacity:0.27451;"/>
<stop offset="1" style="stop-color:rgb(0%,0%,0%);stop-opacity:0;"/>
</radialGradient>
<radialGradient id="radial3" gradientUnits="userSpaceOnUse" cx="450.908936" cy="189.579361" fx="450.908936" fy="189.579361" r="21.166656" gradientTransform="matrix(0.00000139336,0.62506,-1.125108,0.000000812309,356.1852,-60.21986)">
<stop offset="0" style="stop-color:rgb(0%,0%,0%);stop-opacity:0.313725;"/>
<stop offset="0.222222" style="stop-color:rgb(0%,0%,0%);stop-opacity:0.27451;"/>
<stop offset="1" style="stop-color:rgb(0%,0%,0%);stop-opacity:0;"/>
</radialGradient>
<linearGradient id="linear0" gradientUnits="userSpaceOnUse" x1="255.323059" y1="233.5" x2="255.323044" y2="254.666656" gradientTransform="matrix(0.10688,0,0,0.500048,99.723089,107.510269)">
<stop offset="0" style="stop-color:rgb(0%,0%,0%);stop-opacity:0.27451;"/>
<stop offset="1" style="stop-color:rgb(0%,0%,0%);stop-opacity:0;"/>
</linearGradient>
<linearGradient id="linear1" gradientUnits="userSpaceOnUse" x1="275.166656" y1="233.5" x2="275.166656" y2="-168.666656" >
<stop offset="0" style="stop-color:rgb(93.72549%,32.54902%,31.372549%);stop-opacity:1;"/>
<stop offset="1" style="stop-color:rgb(89.803922%,45.098039%,45.098039%);stop-opacity:1;"/>
</linearGradient>
<linearGradient id="linear2" gradientUnits="userSpaceOnUse" x1="254" y1="159.416672" x2="254" y2="-105.166672" gradientTransform="matrix(3.779528,0,0,3.779528,0,812.59845)">
<stop offset="0" style="stop-color:rgb(87.843137%,87.843137%,87.843137%);stop-opacity:1;"/>
<stop offset="1" style="stop-color:rgb(93.333333%,93.333333%,93.333333%);stop-opacity:1;"/>
</linearGradient>
</defs>
<g id="surface1">
<path style=" stroke:none;fill-rule:nonzero;fill:url(#radial0);" d="M 145.535156 224.269531 L 166.703125 224.269531 L 166.703125 213.6875 L 145.535156 213.6875 Z M 145.535156 224.269531 "/>
<path style=" stroke:none;fill-rule:nonzero;fill:url(#radial1);" d="M 108.488281 224.269531 L 87.320312 224.269531 L 87.320312 234.855469 L 108.488281 234.855469 Z M 108.488281 224.269531 "/>
<path style=" stroke:none;fill-rule:nonzero;fill:url(#radial2);" d="M 108.488281 224.269531 L 87.320312 224.269531 L 87.320312 213.6875 L 108.488281 213.6875 Z M 108.488281 224.269531 "/>
<path style=" stroke:none;fill-rule:nonzero;fill:url(#radial3);" d="M 145.535156 224.269531 L 166.703125 224.269531 L 166.703125 234.855469 L 145.535156 234.855469 Z M 145.535156 224.269531 "/>
<path style=" stroke:none;fill-rule:nonzero;fill:url(#linear0);" d="M 108.488281 221.625 L 145.535156 221.625 L 145.535156 234.855469 L 108.488281 234.855469 Z M 108.488281 221.625 "/>
<path style="fill-rule:nonzero;fill:url(#linear1);stroke-width:3;stroke-linecap:round;stroke-linejoin:miter;stroke:rgb(20%,20%,20%);stroke-opacity:1;stroke-miterlimit:4;" d="M 253.999182 -168.668487 C 365.058889 -168.668487 455.081542 -78.638022 455.081542 32.413873 C 455.081542 143.47358 365.058889 233.496233 253.999182 233.496233 C 142.947287 233.496233 52.916822 143.47358 52.916822 32.413873 C 52.916822 -78.638022 142.947287 -168.668487 253.999182 -168.668487 Z M 253.999182 -168.668487 " transform="matrix(0.500048,0,0,0.500048,0,107.510266)"/>
<path style=" stroke:none;fill-rule:nonzero;fill:rgb(0%,0%,0%);fill-opacity:0.196078;" d="M 127.011719 224.269531 C 71.308594 224.269531 26.460938 179.425781 26.460938 123.71875 C 26.460938 123.390625 26.464844 123.0625 26.46875 122.734375 C 26.992188 177.984375 71.636719 222.300781 127.011719 222.300781 C 182.390625 222.300781 227.03125 177.984375 227.558594 122.734375 C 227.558594 123.0625 227.5625 123.390625 227.5625 123.71875 C 227.5625 179.425781 182.71875 224.269531 127.011719 224.269531 Z M 127.011719 224.269531 "/>
<path style=" stroke:none;fill-rule:nonzero;fill:rgb(100%,100%,100%);fill-opacity:0.392157;" d="M 127.011719 23.167969 C 71.308594 23.167969 26.460938 68.015625 26.460938 123.71875 C 26.460938 124.046875 26.464844 124.375 26.46875 124.703125 C 26.992188 69.457031 71.636719 25.136719 127.011719 25.136719 C 182.390625 25.136719 227.03125 69.457031 227.558594 124.703125 C 227.558594 124.375 227.5625 124.046875 227.5625 123.71875 C 227.5625 68.015625 182.71875 23.167969 127.011719 23.167969 Z M 127.011719 23.167969 "/>
<path style=" stroke:none;fill-rule:nonzero;fill:rgb(12.941177%,12.941177%,12.941177%);fill-opacity:1;" d="M 127.011719 22.417969 C 70.902344 22.417969 25.710938 67.613281 25.710938 123.71875 C 25.710938 179.828125 70.902344 225.023438 127.011719 225.023438 C 183.121094 225.023438 228.3125 179.828125 228.3125 123.71875 C 228.3125 67.613281 183.121094 22.417969 127.011719 22.417969 Z M 127.011719 23.917969 C 182.316406 23.917969 226.8125 68.417969 226.8125 123.71875 C 226.8125 179.023438 182.316406 223.519531 127.011719 223.519531 C 71.710938 223.519531 27.210938 179.023438 27.210938 123.71875 C 27.210938 68.417969 71.710938 23.917969 127.011719 23.917969 Z M 127.011719 23.917969 "/>
<path style="fill-rule:nonzero;fill:url(#linear2);stroke-width:11.338583;stroke-linecap:square;stroke-linejoin:round;stroke:rgb(12.941177%,12.941177%,12.941177%);stroke-opacity:1;stroke-miterlimit:4;" d="M 880.014434 415.11786 C 857.841354 415.11786 840.00841 432.950804 840.00841 455.123885 L 840.00841 1015.11965 C 840.00841 1037.263206 857.841354 1055.125674 880.014434 1055.125674 L 1040.009006 1055.125674 C 1062.152562 1055.125674 1079.985506 1037.263206 1079.985506 1015.11965 L 1079.985506 455.123885 C 1079.985506 432.950804 1062.152562 415.11786 1040.009006 415.11786 Z M 959.996958 1175.114222 C 893.507241 1175.114222 840.00841 1228.642578 840.00841 1295.10277 C 840.00841 1361.592487 893.507241 1415.120843 959.996958 1415.120843 C 1026.486675 1415.120843 1079.985506 1361.592487 1079.985506 1295.10277 C 1079.985506 1228.642578 1026.486675 1175.114222 959.996958 1175.114222 Z M 959.996958 1175.114222 " transform="matrix(0.132304,0,0,0.132304,0,0)"/>
</g>
</svg>

<svg xmlns="http://www.w3.org/2000/svg" width="256pt" height="256pt" viewBox="0 0 256 256"><defs><radialGradient id="a" gradientUnits="userSpaceOnUse" cx="450.909" cy="189.579" fx="450.909" fy="189.579" r="21.167" gradientTransform="matrix(0 -.62506 -1.1251 0 356.185 508.763)"><stop offset="0" stop-opacity=".314"/><stop offset=".222" stop-opacity=".275"/><stop offset="1" stop-opacity="0"/></radialGradient><radialGradient id="b" gradientUnits="userSpaceOnUse" cx="450.909" cy="189.579" fx="450.909" fy="189.579" r="21.167" gradientTransform="matrix(0 .62506 1.1251 0 -102.16 -60.22)"><stop offset="0" stop-opacity=".314"/><stop offset=".222" stop-opacity=".275"/><stop offset="1" stop-opacity="0"/></radialGradient><radialGradient id="c" gradientUnits="userSpaceOnUse" cx="450.909" cy="189.579" fx="450.909" fy="189.579" r="21.167" gradientTransform="matrix(0 -.62506 1.1251 0 -102.16 508.763)"><stop offset="0" stop-opacity=".314"/><stop offset=".222" stop-opacity=".275"/><stop offset="1" stop-opacity="0"/></radialGradient><radialGradient id="d" gradientUnits="userSpaceOnUse" cx="450.909" cy="189.579" fx="450.909" fy="189.579" r="21.167" gradientTransform="matrix(0 .62506 -1.1251 0 356.185 -60.22)"><stop offset="0" stop-opacity=".314"/><stop offset=".222" stop-opacity=".275"/><stop offset="1" stop-opacity="0"/></radialGradient><linearGradient id="e" gradientUnits="userSpaceOnUse" x1="255.323" y1="233.5" x2="255.323" y2="254.667" gradientTransform="matrix(.10688 0 0 .50005 99.723 107.51)"><stop offset="0" stop-opacity=".275"/><stop offset="1" stop-opacity="0"/></linearGradient><linearGradient id="f" gradientUnits="userSpaceOnUse" x1="275.167" y1="233.5" x2="275.167" y2="-168.667"><stop offset="0" stop-color="#ef5350"/><stop offset="1" stop-color="#e57373"/></linearGradient><linearGradient id="g" gradientUnits="userSpaceOnUse" x1="254" y1="159.417" x2="254" y2="-105.167" gradientTransform="matrix(3.77953 0 0 3.77953 0 812.598)"><stop offset="0" stop-color="#e0e0e0"/><stop offset="1" stop-color="#eee"/></linearGradient></defs><path d="M145.535 224.27h21.168v-10.583h-21.168zm0 0" fill="url(#a)"/><path d="M108.488 224.27H87.32v10.585h21.168zm0 0" fill="url(#b)"/><path d="M108.488 224.27H87.32v-10.583h21.168zm0 0" fill="url(#c)"/><path d="M145.535 224.27h21.168v10.585h-21.168zm0 0" fill="url(#d)"/><path d="M108.488 221.625h37.047v13.23h-37.047zm0 0" fill="url(#e)"/><path d="M254-168.668c111.059 0 201.082 90.03 201.082 201.082 0 111.06-90.023 201.082-201.083 201.082-111.052 0-201.082-90.022-201.082-201.082 0-111.052 90.03-201.082 201.082-201.082zm0 0" transform="matrix(.50005 0 0 .50005 0 107.51)" fill="url(#f)" stroke-width="3" stroke-linecap="round" stroke="#333"/><path d="M127.012 224.27c-55.703 0-100.551-44.844-100.551-100.551 0-.328.004-.656.008-.985.523 55.25 45.168 99.567 100.543 99.567 55.379 0 100.02-44.317 100.547-99.567 0 .329.004.657.004.985 0 55.707-44.844 100.55-100.551 100.55zm0 0" fill-opacity=".196"/><path d="M127.012 23.168c-55.703 0-100.551 44.848-100.551 100.55 0 .329.004.657.008.985.523-55.246 45.168-99.566 100.543-99.566 55.379 0 100.02 44.32 100.547 99.566 0-.328.004-.656.004-.984 0-55.703-44.844-100.551-100.551-100.551zm0 0" fill="#fff" fill-opacity=".392"/><path d="M127.012 22.418c-56.11 0-101.301 45.195-101.301 101.3 0 56.11 45.191 101.305 101.3 101.305 56.11 0 101.302-45.195 101.302-101.304 0-56.106-45.192-101.301-101.301-101.301zm0 1.5c55.304 0 99.8 44.5 99.8 99.8 0 55.305-44.496 99.802-99.8 99.802-55.301 0-99.801-44.497-99.801-99.801 0-55.301 44.5-99.801 99.8-99.801zm0 0" fill="#212121"/><path d="M880.014 415.118a39.906 39.906 0 0 0-40.006 40.006v559.996c0 22.143 17.833 40.006 40.006 40.006h159.995c22.144 0 39.977-17.863 39.977-40.006V455.124c0-22.173-17.833-40.006-39.977-40.006zm79.983 759.996c-66.49 0-119.989 53.529-119.989 119.989 0 66.49 53.5 120.018 119.989 120.018 66.49 0 119.989-53.529 119.989-120.018 0-66.46-53.5-119.989-119.989-119.989zm0 0" transform="scale(.1323)" fill="url(#g)" stroke-width="11.339" stroke-linecap="square" stroke-linejoin="round" stroke="#212121"/></svg>
